svg/design/layout_4_line.svg

<svg xmlns="http://www.w3.org/2000/svg" width="24" height="24" viewBox="0 0 24 24"><g fill="none" fill-rule="evenodd"><rect width="24" height="24"/><path fill="#09244B" d="M19,3 C20.1046,3 21,3.89543 21,5 L21,19 C21,20.1046 20.1046,21 19,21 L5,21 C3.89543,21 3,20.1046 3,19 L3,5 C3,3.89543 3.89543,3 5,3 L19,3 Z M19,5 L10,5 L10,19 L19,19 L19,5 Z M8,5 L5,5 L5,19 L8,19 L8,5 Z M16,15 C16.5523,15 17,15.4477 17,16 C17,16.51285 16.613973,16.9355092 16.1166239,16.9932725 L16,17 L13,17 C12.4477,17 12,16.5523 12,16 C12,15.48715 12.386027,15.0644908 12.8833761,15.0067275 L13,15 L16,15 Z M16,11 C16.5523,11 17,11.4477 17,12 C17,12.5523 16.5523,13 16,13 L13,13 C12.4477,13 12,12.5523 12,12 C12,11.4477 12.4477,11 13,11 L16,11 Z M16,7 C16.5523,7 17,7.44772 17,8 C17,8.51283143 16.613973,8.93550653 16.1166239,8.9932722 L16,9 L13,9 C12.4477,9 12,8.55228 12,8 C12,7.48716857 12.386027,7.06449347 12.8833761,7.0067278 L13,7 L16,7 Z"/></g></svg>

<svg xmlns="http://www.w3.org/2000/svg" width="24" height="24"><g fill="none" fill-rule="evenodd"><path d="M0 0h24v24H0z"/><path fill="#09244B" d="M19 3a2 2 0 0 1 2 2v14a2 2 0 0 1-2 2H5a2 2 0 0 1-2-2V5a2 2 0 0 1 2-2zm0 2h-9v14h9zM8 5H5v14h3zm8 10a1 1 0 0 1 .117 1.993L16 17h-3a1 1 0 0 1-.117-1.993L13 15zm0-4a1 1 0 1 1 0 2h-3a1 1 0 1 1 0-2zm0-4a1 1 0 0 1 .117 1.993L16 9h-3a1 1 0 0 1-.117-1.993L13 7z"/></g></svg>
